X: 11979
T: Enjoy Your Stay
R: polka
M: 2/4
K: Dmajor
|:c/B/|AA/B/ AD|FA df|g>e fd|e/f/e/d/ B/c/d/B/|
A>B AD|FA df/g/|aa/b/ gc|ed d:|
|:A|f>e df|ee/d/ ce|d/e/d/c/ dA|B/c/d A2|
[1 f/e/a d2|e/f/e/d/ cA|d/e/f/g/ af|fe e:|
[2 D/E/F/G/ Ad|FA df/g/|a>b gc|ed- d||

